sliced-svg/output/0145-mulapisu.svg

<?xml version="1.0" encoding="UTF-8"?><svg xmlns="http://www.w3.org/2000/svg" xmlns:xlink="http://www.w3.org/1999/xlink" width="1000px" height="1000px" version="1.1"><g id="surface1"><path style="fill:none;stroke-width:1;stroke-linecap:round;stroke-linejoin:round;stroke:rgb(0%,0%,0%);stroke-opacity:1;stroke-miterlimit:4" d="M 4.999954 75 L 9.999954 65 L 14.999954 75 L 4.999954 75 " transform="matrix(-50,0.000000000000006123,-0.000000000000006123,-50,999.997711,4000)"/><path style="stroke:none;fill-rule:nonzero;fill:rgb(0%,0%,0%);fill-opacity:1" d="M449.996094 512.5C449.996094 484.886719 472.382812 462.5 499.996094 462.5 527.613281 462.5 549.996094 484.886719 549.996094 512.5 549.996094 540.113281 527.613281 562.5 499.996094 562.5 472.382812 562.5 449.996094 540.113281 449.996094 512.5zM374.996094 375C374.996094 347.386719 397.382812 325 424.996094 325 452.613281 325 474.996094 347.386719 474.996094 375 474.996094 402.613281 452.613281 425 424.996094 425 397.382812 425 374.996094 402.613281 374.996094 375zM524.996094 375C524.996094 347.386719 547.382812 325 574.996094 325 602.613281 325 624.996094 347.386719 624.996094 375 624.996094 402.613281 602.613281 425 574.996094 425 547.382812 425 524.996094 402.613281 524.996094 375zM524.996094 375"/></g></svg>

<svg xmlns="http://www.w3.org/2000/svg" width="1000" height="1000"><defs/><path d="M750 250L500 750 250 250h500" fill="none" stroke-linecap="round" stroke-linejoin="round" stroke="#000" stroke-width="50"/><path d="M449.996 512.5c0-27.613 22.387-50 50-50 27.617 0 50 22.387 50 50s-22.383 50-50 50c-27.613 0-50-22.387-50-50zm-75-137.5c0-27.613 22.387-50 50-50 27.617 0 50 22.387 50 50s-22.383 50-50 50c-27.613 0-50-22.387-50-50zm150 0c0-27.613 22.387-50 50-50 27.617 0 50 22.387 50 50s-22.383 50-50 50c-27.613 0-50-22.387-50-50zm0 0"/></svg>
